X: 133
T:Mazurka
M:3/4
L:1/8
R:Mazurka
O:Carol Entwistle
Z:Steve Mansfield
K:G
B BA | B2 BA Bc | A3 GFG | A2 AA GF | GF EB BA | B2 BA Bc |
A3 GFG | A4 G2 |1 A3 :|2 A6 |: BE EB EB | AE EA EA | GE EG EG |
F2 FE D2 | BE EB EB | AE EA EA | G2 GB AG | E6 :|
<end>
<start>
